shader_type canvas_item;

uniform vec4 flash_color : source_color = vec4(0.75);
uniform float flash_modifier : hint_range(0.0, 1.0) = 0.0;

void fragment() {
	vec4 color = texture(TEXTURE, UV);
	color.rgb = mix(color.rgb, flash_color.rgb, flash_modifier);
	COLOR = color;
	//COLOR.a = 1.0;
}