shader_type canvas_item;

uniform vec4 flash_color : source_color = vec4(1.0);
uniform float flash_modifier : hint_range(0.0, 1.0) = 0.0;

varying vec4 v_vertex_color;

void vertex() {
	v_vertex_color = COLOR;
}

void fragment() {
	vec4 color = texture(TEXTURE, UV);
	color.rgb = mix(color.rgb, flash_color.rgb, flash_modifier);
	//COLOR = color;
	COLOR = v_vertex_color * color; //texture(TEXTURE, UV);
}